X:1
T:MINUETTO
T:MINUETTO
T:In G Minore
T:Johann Sebastian Bach
C:Johann Sebastian Bach
%%score { ( 1 4 ) | ( 2 3 ) }
L:1/8
Q:1/4=132
M:3/4
K:Bb
V:1 treble nm="Piano de cola" snm="Pno."
V:4 treble 
V:2 bass 
V:3 bass 
V:1
"^Allegro" (!4!b2 a2 g2 | (!3!a2) !1!d2) .!2!d2 | .!5!g2 (GABc | !5!!1!d6) | .!3!e2 (fedc | %5
 !2!d2) (edc!2!B | !3!c2) (!4!dcBc | PA6) | (!4!b2 P!2!!4!!3!a2 !2!g2 | (!3!a2) !1!d2) .!2!d2 | %10
 .!5!g2 (GABc | !5!!1!d6) | Pf2 (!4!gfed | !3!e2) (fedc | (!2!d2) g2) P!1!!3!!2!c2 | !4!B6 :: %16
 .!4!d2 (!2!B!1!cd=e | !4!f2) .!2!g2 .!3!a2 | !4!b2 (gabg | a2 ga f2) | (!1!FGAB!1!cd | %21
 e2) .P!1!!3!!2!d2 .c2 | (f2 !2!B2) .!1!A2 | B6 | !1!G2 (!4!dc d2) | G2 (!4!ed e2) | %26
 (!1!G!5!d)(!2!^F!5!c)(!1!G!4!B) | !3!A6 | (!1!D=E^F!1!GAB | .c2) .B2 .A2 | %30
 (Bc/d/ .!tenuto!!1!G2) .!tenuto!!4!^F2 | G6 :| %32
V:2
 (!2!G,6 | F,6 | E,6 | D,2) (!1!DCB,A, | !5!!3![G,B,]4) (!4!A,2 | B,4) (!2!G,2 | %6
 A,2) .!3!^F,2 .!2!G,2 | .D,2 (DCB,A, | (!5!!2!G,6) | F,6 | E,6 | D,2) (!1!DC=B,A, | %12
 !3![=B,D]4) (G,2 | !1!C2) .!3!A,2 .F,2 | (!2!B,2 E,2) !2!A,2 | (!1!B,2 B,,4) :: (!2!B,6 | %17
 A,2) .G,2 .F,2 | .!1!G,2 .!3!=E,2 .C,2 | !2!F,4 z2 | (!1!A,2 G,2 F,2 | !1!G,2) .F,2 .E,2 | %22
 (!4!D,2 E,2) .!1!F,2 | B,,2 (D2 C2 | D6 | !2!C6) | .!3!=B,2 .A,2 .G,2 | .D2 (!1!A,G,^F,=E, | %28
 D,4) z2 | .!2!E,2 .!3!D,2 .!4!C,2 | (!5!B,,2 .!tenuto!C,2) .!tenuto!D,2 | (G,2 G,,4) :| %32
V:3
 x6 | x6 | x6 | x6 | x6 | x6 | x6 | x6 | x6 | x6 | x6 | x6 | x6 | x6 | x4 !4!F,2 | x6 :: x6 | x6 | %18
 x6 | x6 | x6 | x6 | x6 | x6 | =B,6 | x6 | x6 | x6 | x6 | x6 | x6 | x6 :| %32
V:4
 x6 | x6 | x6 | x6 | x6 | x6 | x6 | x6 | x6 | x6 | x6 | x6 | x6 | x6 | x6 | [DF]6 :: x6 | x6 | x6 | %19
 x6 | x6 | x6 | x6 | x6 | x6 | x6 | x6 | x6 | x6 | x6 | x6 | [B,D]6 :| %32

